app/static/icons/email.svg

<svg width="22" height="22" viewBox="0 0 22 22" fill="none" xmlns="http://www.w3.org/2000/svg">
<path d="M18.9606 2.77104C16.9401 0.925548 14.4214 0 11.416 0C8.25212 0 5.55801 1.04895 3.33934 3.15247C1.115 5.25599 0 7.87557 0 11.0056C0 14.0066 1.0584 16.5869 3.1752 18.7522C5.29766 20.9174 8.15024 21.9944 11.7443 21.9944C13.9064 21.9944 16.0345 21.5569 18.1173 20.6706C18.7965 20.3845 19.1248 19.6104 18.8531 18.9317C18.5701 18.2305 17.7607 17.9108 17.0589 18.2024C15.2477 18.9765 13.4705 19.358 11.7443 19.358C8.99357 19.358 6.85979 18.5278 5.3486 16.8618C3.84307 15.2014 3.08464 13.2494 3.08464 11.0112C3.08464 8.57675 3.89401 6.55176 5.51273 4.91943C7.1258 3.29271 9.11243 2.47935 11.4669 2.47935C13.6347 2.47935 15.4685 3.14686 16.9627 4.48751C18.4569 5.82254 19.204 7.50535 19.204 9.53595C19.204 10.9215 18.8588 12.0826 18.1739 13.0025C17.4891 13.9281 16.7816 14.3825 16.0401 14.3825C15.6439 14.3825 15.4402 14.1693 15.4402 13.743C15.4402 13.3952 15.4685 12.9913 15.5194 12.5258L16.3571 5.71035H13.4592L13.2724 6.37787C12.5367 5.78327 11.7216 5.48037 10.8444 5.48037C9.45202 5.48037 8.25212 6.03009 7.26164 7.12953C6.2655 8.23457 5.77309 9.65375 5.77309 11.387C5.77309 13.0811 6.21456 14.4498 7.0975 15.4819C7.98045 16.5252 9.03885 17.0413 10.2784 17.0413C11.3877 17.0413 12.3329 16.5813 13.1196 15.6614C13.7139 16.5477 14.5855 16.9852 15.7402 16.9852C17.4381 16.9852 18.904 16.256 20.1436 14.7863C21.3774 13.3223 22 11.5553 22 9.48547C22 6.86028 20.9925 4.62213 18.9606 2.77104ZM12.2876 13.0979C11.7782 13.7823 11.167 14.1244 10.4538 14.1244C9.96707 14.1244 9.5822 13.872 9.28788 13.3728C8.98791 12.8679 8.84075 12.2453 8.84075 11.4992C8.84075 10.5737 9.05017 9.82764 9.46334 9.2667C9.88217 8.70015 10.3972 8.41407 11.0141 8.41407C11.5462 8.41407 12.0216 8.62723 12.4404 9.05354C12.8593 9.47986 13.063 10.0464 13.063 10.7532C13.0574 11.6339 12.8027 12.4136 12.2876 13.0979Z" fill="#9A9A9A"/>
</svg>

<svg xmlns="http://www.w3.org/2000/svg" width="22" height="22" fill="none"><path d="M18.96 2.77C16.94.926 14.42 0 11.416 0 8.252 0 5.558 1.05 3.34 3.152 1.115 5.256 0 7.876 0 11.006c0 3 1.058 5.58 3.175 7.747 2.122 2.165 4.975 3.242 8.57 3.242 2.162 0 4.3-.437 6.373-1.324.68-.286 1.008-1.06.736-1.74-.283-.7-1.092-1.02-1.794-.73-1.81.774-3.588 1.156-5.315 1.156-2.75 0-4.885-.83-6.396-2.496-1.506-1.66-2.264-3.612-2.264-5.85 0-2.434.81-4.46 2.428-6.092 1.613-1.627 3.6-2.44 5.954-2.44 2.168 0 4.002.668 5.496 2.008 1.494 1.335 2.24 3.018 2.24 5.048 0 1.386-.345 2.547-1.03 3.467-.685.926-1.392 1.38-2.134 1.38-.396 0-.6-.213-.6-.64 0-.348.028-.752.08-1.217l.838-6.815H13.46l-.187.668c-.736-.595-1.55-.897-2.428-.897-1.392 0-2.592.55-3.583 1.65-.996 1.105-1.49 2.524-1.49 4.257 0 1.694.44 3.063 1.324 4.095.883 1.043 1.94 1.56 3.18 1.56 1.11 0 2.055-.46 2.84-1.38.594.886 1.466 1.324 2.62 1.324 1.698 0 3.164-.73 4.403-2.2 1.234-1.464 1.856-3.23 1.856-5.3 0-2.625-1.008-4.863-3.04-6.714zm-6.673 10.327c-.51.684-1.12 1.027-1.834 1.027-.487 0-.872-.252-1.166-.752-.3-.505-.447-1.127-.447-1.874 0-.925.21-1.672.623-2.232.42-.567.934-.853 1.55-.853.532 0 1.008.213 1.426.64s.623.993.623 1.7c-.006.88-.26 1.66-.775 2.345z" fill="#9a9a9a"/></svg>
